archdroid-icon-theme/Archdroid-Amber/mimetypes/scalable/image-tiff.svg

<svg fill="#e91e63" height="48" viewBox="0 0 48 48" width="48" xmlns="http://www.w3.org/2000/svg"><path d="m10 6c-2.21 0-4 1.79-4 4v28c0 2.21 1.79 4 4 4h28c2.21 0 4-1.79 4-4v-28c0-2.21-1.79-4-4-4zm16.828125 4.222656c.142415 0 .287109.010742.433594.035156.146484.020346.311035.051107.49414.091797l-.152343 1.148438c-.081381-.016276-.171713-.030762-.273438-.042969-.097656-.012207-.204427-.017578-.318359-.017578-.321452 0-.563802.090332-.726563.273438-.158691.183105-.238281.445312-.238281.787109v.769531h1.34375v1.09961h-1.34375v5.503906h-1.482422v-5.503906h-1.007812v-1.09961h1.007812v-.769531c0-.728353.197103-1.2889.591797-1.683594.398763-.394694.955729-.591797 1.671875-.591797zm4.394531 0c.142416 0 .28711.010742.433594.035156.146484.020346.311035.051107.494141.091797l-.152344 1.148438c-.08138-.016276-.171712-.030762-.273438-.042969-.097656-.012207-.204427-.017578-.318359-.017578-.321452 0-.563802.090332-.726562.273438-.158692.183105-.238282.445312-.238282.787109v.769531h1.34375v1.09961h-1.34375v5.503906h-1.482422v-5.503906h-1.007812v-1.09961h1.007812v-.769531c0-.728353.197103-1.2889.591797-1.683594.398763-.394694.955729-.591797 1.671875-.591797zm-10.289062.126953h1.482422v1.300782h-1.482422zm-4.078125 1.3125h1.476562v1.605469h1.185547v1.09961h-1.185547v3.648437c0 .272624.059733.467936.177735.585937.118001.113933.27539.171876.470703.171876.08138 0 .16097-.007325.238281-.019532.077311-.016276.149577-.036133.21875-.060547l.158203 1.087891c-.126139.069173-.276204.121582-.451172.158203-.174967.04069-.355794.060547-.542969.060547-.545247 0-.972005-.15918-1.28125-.476562-.309244-.321452-.464843-.824219-.464843-1.507813v-3.648437h-1.00586v-1.09961h1.00586zm4.078125 1.605469h1.482422v6.603516h-1.482422zm8.066406 10.732422 9 12h-28l7-9 5 6.009766z" fill="#e91e63"/></svg>

<svg fill="#e91e63" height="48" version="1.1" viewBox="0 0 48 48" width="48" xmlns="http://www.w3.org/2000/svg"><path d="M10 6C7.79 6 6 7.79 6 10L6 38C6 40.21 7.79 42 10 42L38 42C40.21 42 42 40.21 42 38L42 10C42 7.79 40.21 6 38 6L10 6zM26.828125 10.222656C26.97054 10.222656 27.115234 10.233398 27.261719 10.257812 27.408203 10.278158 27.572754 10.308919 27.755859 10.349609L27.603516 11.498047C27.522135 11.481771 27.431803 11.467285 27.330078 11.455078 27.232422 11.442871 27.125651 11.4375 27.011719 11.4375 26.690267 11.4375 26.447917 11.527832 26.285156 11.710938 26.126465 11.894043 26.046875 12.15625 26.046875 12.498047L26.046875 13.267578 27.390625 13.267578 27.390625 14.367188 26.046875 14.367188 26.046875 19.871094 24.564453 19.871094 24.564453 14.367188 23.556641 14.367188 23.556641 13.267578 24.564453 13.267578 24.564453 12.498047C24.564453 11.769694 24.761556 11.209147 25.15625 10.814453 25.555013 10.419759 26.111979 10.222656 26.828125 10.222656zM31.222656 10.222656C31.365072 10.222656 31.509766 10.233398 31.65625 10.257812 31.802734 10.278158 31.967285 10.308919 32.150391 10.349609L31.998047 11.498047C31.916667 11.481771 31.826335 11.467285 31.724609 11.455078 31.626953 11.442871 31.520182 11.4375 31.40625 11.4375 31.084798 11.4375 30.842448 11.527832 30.679688 11.710938 30.520996 11.894043 30.441406 12.15625 30.441406 12.498047L30.441406 13.267578 31.785156 13.267578 31.785156 14.367188 30.441406 14.367188 30.441406 19.871094 28.958984 19.871094 28.958984 14.367188 27.951172 14.367188 27.951172 13.267578 28.958984 13.267578 28.958984 12.498047C28.958984 11.769694 29.156087 11.209147 29.550781 10.814453 29.949544 10.419759 30.50651 10.222656 31.222656 10.222656zM20.933594 10.349609L22.416016 10.349609 22.416016 11.650391 20.933594 11.650391 20.933594 10.349609zM16.855469 11.662109L18.332031 11.662109 18.332031 13.267578 19.517578 13.267578 19.517578 14.367188 18.332031 14.367188 18.332031 18.015625C18.332031 18.288249 18.391764 18.483561 18.509766 18.601562 18.627767 18.715495 18.785156 18.773438 18.980469 18.773438 19.061849 18.773438 19.141439 18.766113 19.21875 18.753906 19.296061 18.73763 19.368327 18.717773 19.4375 18.693359L19.595703 19.78125C19.469564 19.850423 19.319499 19.902832 19.144531 19.939453 18.969564 19.980143 18.788737 20 18.601562 20 18.056315 20 17.629557 19.84082 17.320312 19.523438 17.011068 19.201986 16.855469 18.699219 16.855469 18.015625L16.855469 14.367188 15.849609 14.367188 15.849609 13.267578 16.855469 13.267578 16.855469 11.662109zM20.933594 13.267578L22.416016 13.267578 22.416016 19.871094 20.933594 19.871094 20.933594 13.267578zM29 24L38 36 10 36 17 27 22 33.009766 29 24z"/></svg>
